snap/Costumes/orange.svg

<?xml version="1.0" encoding="UTF-8" standalone="no"?>
<svg
   xmlns:dc="http://purl.org/dc/elements/1.1/"
   xmlns:cc="http://creativecommons.org/ns#"
   xmlns:rdf="http://www.w3.org/1999/02/22-rdf-syntax-ns#"
   xmlns:svg="http://www.w3.org/2000/svg"
   xmlns="http://www.w3.org/2000/svg"
   xmlns:sodipodi="http://sodipodi.sourceforge.net/DTD/sodipodi-0.dtd"
   xmlns:inkscape="http://www.inkscape.org/namespaces/inkscape"
   version="1.1"
   width="37.039051"
   height="35.675941"
   id="svg7533"
   sodipodi:docname="orange.svg"
   inkscape:version="0.92.2 5c3e80d, 2017-08-06">
  <metadata
     id="metadata7539">
    <rdf:RDF>
      <cc:Work
         rdf:about="">
        <dc:format>image/svg+xml</dc:format>
        <dc:type
           rdf:resource="http://purl.org/dc/dcmitype/StillImage" />
        <dc:title></dc:title>
      </cc:Work>
    </rdf:RDF>
  </metadata>
  <defs
     id="defs7537" />
  <sodipodi:namedview
     pagecolor="#ffffff"
     bordercolor="#666666"
     borderopacity="1"
     objecttolerance="10"
     gridtolerance="10"
     guidetolerance="10"
     inkscape:pageopacity="0"
     inkscape:pageshadow="2"
     inkscape:window-width="640"
     inkscape:window-height="480"
     id="namedview7535"
     showgrid="false"
     fit-margin-top="0"
     fit-margin-left="0"
     fit-margin-right="0"
     fit-margin-bottom="0"
     inkscape:zoom="9.6451613"
     inkscape:cx="15.853581"
     inkscape:cy="20.57594"
     inkscape:window-x="-2"
     inkscape:window-y="-2"
     inkscape:window-maximized="0"
     inkscape:current-layer="svg7533" />
  <!-- Exported by Scratch - http://scratch.mit.edu/ -->
  <g
     id="ID0.5813852562569082"
     transform="matrix(1.1547309,0,0,1.1547309,-0.34641927,0)">
    <path
       id="Orange"
       d="M 25.447,47.521 C 38.502,47.521 49.394,38.5 49.394,25.449 49.395,12.396 38.5,1.5 25.447,1.5 12.394,1.5 1.5,12.394 1.5,25.448 c 0,13.053 10.893,22.073 23.947,22.073 z"
       transform="matrix(0.63024944,0,0,0.63024944,0.3,0)"
       inkscape:connector-curvature="0"
       style="fill:#faac18;stroke:#000000;stroke-width:3" />
    <g
       id="Bumps">
      <path
         id="ID0.804985926952213"
         d="m 14.172,38.442 c -0.152,-0.012 -0.112,0.562 -0.82,0.562 -0.708,0 -0.626,-0.51 -0.816,-0.493 -0.384,0.033 -0.2,1.413 0.872,1.38 1.08,-0.033 1.069,-1.425 0.764,-1.449 z"
         transform="matrix(0.63024944,0,0,0.63024944,0.3,0)"
         inkscape:connector-curvature="0"
         style="fill:#231f20" />
      <path
         id="ID0.9794910699129105"
         d="m 23.197,40.819 c -0.193,-0.015 -0.143,0.703 -1.028,0.703 -0.885,0 -0.781,-0.639 -1.02,-0.617 -0.48,0.041 -0.25,1.769 1.09,1.726 1.355,-0.043 1.339,-1.783 0.958,-1.812 z"
         transform="matrix(0.63024944,0,0,0.63024944,0.3,0)"
         inkscape:connector-curvature="0"
         style="fill:#231f20" />
      <path
         id="ID0.9470401261933148"
         d="m 32.572,38.262 c -0.192,-0.014 -0.142,0.703 -1.027,0.703 -0.885,0 -0.78,-0.64 -1.02,-0.617 -0.48,0.042 -0.25,1.769 1.09,1.726 1.354,-0.046 1.339,-1.785 0.957,-1.812 z"
         transform="matrix(0.63024944,0,0,0.63024944,0.3,0)"
         inkscape:connector-curvature="0"
         style="fill:#231f20" />
      <path
         id="ID0.7090954459272325"
         d="m 30.807,42.819 c -0.192,-0.015 -0.144,0.703 -1.027,0.703 -0.883,0 -0.782,-0.639 -1.021,-0.617 -0.479,0.041 -0.25,1.769 1.092,1.726 1.352,-0.043 1.337,-1.783 0.956,-1.812 z"
         transform="matrix(0.63024944,0,0,0.63024944,0.3,0)"
         inkscape:connector-curvature="0"
         style="fill:#231f20" />
      <path
         id="ID0.44101877231150866"
         d="m 26.27,32.905 c -0.154,-0.012 -0.114,0.562 -0.822,0.562 -0.708,0 -0.626,-0.51 -0.816,-0.493 -0.384,0.033 -0.198,1.414 0.872,1.382 1.083,-0.037 1.07,-1.428 0.766,-1.451 z"
         transform="matrix(0.63024944,0,0,0.63024944,0.3,0)"
         inkscape:connector-curvature="0"
         style="fill:#231f20" />
      <path
         id="ID0.06726754968985915"
         d="M 9.02,30.348 C 8.866,30.337 8.906,30.91 8.198,30.91 7.49,30.91 7.572,30.399 7.382,30.418 6.998,30.45 7.184,31.831 8.254,31.798 9.337,31.762 9.324,30.37 9.02,30.348 Z"
         transform="matrix(0.63024944,0,0,0.63024944,0.3,0)"
         inkscape:connector-curvature="0"
         style="fill:#231f20" />
      <path
         id="ID0.007415797095745802"
         d="m 18.585,34.187 c -0.152,-0.013 -0.112,0.562 -0.82,0.562 -0.708,0 -0.626,-0.511 -0.816,-0.493 -0.384,0.033 -0.2,1.414 0.872,1.38 1.081,-0.036 1.069,-1.429 0.764,-1.449 z"
         transform="matrix(0.63024944,0,0,0.63024944,0.3,0)"
         inkscape:connector-curvature="0"
         style="fill:#231f20" />
      <path
         id="ID0.8762991363182664"
         d="m 10.683,25.153 c -0.137,-0.01 -0.102,0.492 -0.722,0.492 -0.618,0 -0.548,-0.445 -0.714,-0.432 -0.336,0.029 -0.174,1.236 0.765,1.208 0.948,-0.029 0.937,-1.247 0.671,-1.268 z"
         transform="matrix(0.63024944,0,0,0.63024944,0.3,0)"
         inkscape:connector-curvature="0"
         style="fill:#231f20" />
      <path
         id="ID0.33623187709599733"
         d="m 20.351,25.065 c -0.154,-0.012 -0.114,0.562 -0.822,0.562 -0.708,0 -0.626,-0.511 -0.816,-0.493 -0.384,0.033 -0.197,1.414 0.872,1.38 1.083,-0.035 1.07,-1.428 0.766,-1.449 z"
         transform="matrix(0.63024944,0,0,0.63024944,0.3,0)"
         inkscape:connector-curvature="0"
         style="fill:#231f20" />
      <path
         id="ID0.7284569386392832"
         d="m 15.834,17.284 c -0.134,-0.01 -0.1,0.49 -0.719,0.49 -0.619,0 -0.547,-0.445 -0.714,-0.432 -0.336,0.029 -0.175,1.237 0.763,1.208 0.948,-0.028 0.938,-1.247 0.67,-1.266 z"
         transform="matrix(0.63024944,0,0,0.63024944,0.3,0)"
         inkscape:connector-curvature="0"
         style="fill:#231f20" />
      <path
         id="ID0.2832300402224064"
         d="m 40.087,30.348 c -0.152,-0.011 -0.112,0.562 -0.82,0.562 -0.708,0 -0.626,-0.511 -0.815,-0.493 -0.384,0.033 -0.2,1.415 0.871,1.381 1.081,-0.036 1.069,-1.428 0.764,-1.45 z"
         transform="matrix(0.63024944,0,0,0.63024944,0.3,0)"
         inkscape:connector-curvature="0"
         style="fill:#231f20" />
      <path
         id="ID0.23476475197821856"
         d="m 38.091,12.551 c -0.108,-0.008 -0.082,0.404 -0.592,0.404 -0.51,0 -0.45,-0.367 -0.587,-0.355 -0.274,0.024 -0.145,1.019 0.627,0.993 0.78,-0.024 0.772,-1.026 0.552,-1.042 z"
         transform="matrix(0.63024944,0,0,0.63024944,0.3,0)"
         inkscape:connector-curvature="0"
         style="fill:#231f20" />
      <path
         id="ID0.8315284247510135"
         d="m 45.49,27.764 c -0.159,-0.011 -0.118,0.582 -0.851,0.582 -0.733,0 -0.647,-0.526 -0.846,-0.51 -0.396,0.032 -0.207,1.463 0.901,1.428 1.125,-0.035 1.113,-1.477 0.796,-1.5 z"
         transform="matrix(0.63024944,0,0,0.63024944,0.3,0)"
         inkscape:connector-curvature="0"
         style="fill:#231f20" />
      <path
         id="ID0.44592879386618733"
         d="m 45.462,32.905 c -0.152,-0.012 -0.112,0.562 -0.82,0.562 -0.708,0 -0.626,-0.51 -0.815,-0.493 -0.384,0.033 -0.2,1.414 0.871,1.382 1.081,-0.037 1.069,-1.428 0.764,-1.451 z"
         transform="matrix(0.63024944,0,0,0.63024944,0.3,0)"
         inkscape:connector-curvature="0"
         style="fill:#231f20" />
      <path
         id="ID0.722075801808387"
         d="m 13.941,9.993 c -0.111,-0.008 -0.082,0.404 -0.592,0.404 -0.512,0 -0.451,-0.367 -0.587,-0.355 -0.276,0.023 -0.146,1.018 0.627,0.992 0.781,-0.024 0.772,-1.026 0.552,-1.041 z"
         transform="matrix(0.63024944,0,0,0.63024944,0.3,0)"
         inkscape:connector-curvature="0"
         style="fill:#231f20" />
      <path
         id="ID0.5132322055287659"
         d="m 45.207,22.241 c -0.104,-0.008 -0.078,0.389 -0.565,0.389 -0.488,0 -0.434,-0.352 -0.563,-0.34 -0.265,0.023 -0.137,0.976 0.604,0.951 0.742,-0.023 0.735,-0.984 0.524,-1 z"
         transform="matrix(0.63024944,0,0,0.63024944,0.3,0)"
         inkscape:connector-curvature="0"
         style="fill:#231f20" />
      <path
         id="ID0.5369726498611271"
         d="m 28.605,9.993 c -0.111,-0.008 -0.082,0.404 -0.592,0.404 -0.512,0 -0.451,-0.367 -0.587,-0.355 -0.276,0.023 -0.146,1.018 0.627,0.992 0.781,-0.024 0.772,-1.026 0.552,-1.041 z"
         transform="matrix(0.63024944,0,0,0.63024944,0.3,0)"
         inkscape:connector-curvature="0"
         style="fill:#231f20" />
      <path
         id="ID0.9760562963783741"
         d="m 30.476,4.864 c -0.111,-0.008 -0.082,0.403 -0.594,0.403 -0.51,0 -0.449,-0.366 -0.587,-0.354 -0.274,0.023 -0.145,1.018 0.627,0.992 0.782,-0.024 0.773,-1.025 0.554,-1.041 z"
         transform="matrix(0.63024944,0,0,0.63024944,0.3,0)"
         inkscape:connector-curvature="0"
         style="fill:#231f20" />
      <path
         id="ID0.6669098972342908"
         d="m 39.177,37.165 c -0.154,-0.014 -0.114,0.562 -0.822,0.562 -0.708,0 -0.626,-0.511 -0.815,-0.492 -0.385,0.031 -0.2,1.412 0.871,1.379 1.083,-0.036 1.07,-1.426 0.766,-1.449 z"
         transform="matrix(0.63024944,0,0,0.63024944,0.3,0)"
         inkscape:connector-curvature="0"
         style="fill:#231f20" />
      <path
         id="ID0.4851362085901201"
         d="m 6.198,18.563 c -0.134,-0.01 -0.1,0.491 -0.719,0.491 -0.619,0 -0.547,-0.446 -0.714,-0.432 -0.336,0.028 -0.175,1.237 0.763,1.208 0.949,-0.029 0.937,-1.247 0.67,-1.267 z"
         transform="matrix(0.63024944,0,0,0.63024944,0.3,0)"
         inkscape:connector-curvature="0"
         style="fill:#231f20" />
      <path
         id="ID0.8932326091453433"
         d="m 31.684,18.271 c -0.137,-0.01 -0.103,0.491 -0.722,0.491 -0.617,0 -0.548,-0.446 -0.714,-0.432 -0.336,0.028 -0.175,1.237 0.765,1.208 0.948,-0.03 0.937,-1.248 0.671,-1.267 z"
         transform="matrix(0.63024944,0,0,0.63024944,0.3,0)"
         inkscape:connector-curvature="0"
         style="fill:#231f20" />
      <path
         id="ID0.9554788623936474"
         d="m 42.677,14.677 c -0.106,-0.008 -0.078,0.389 -0.567,0.389 -0.488,0 -0.432,-0.353 -0.562,-0.341 -0.266,0.023 -0.139,0.976 0.604,0.952 0.744,-0.024 0.735,-0.985 0.525,-1 z"
         transform="matrix(0.63024944,0,0,0.63024944,0.3,0)"
         inkscape:connector-curvature="0"
         style="fill:#231f20" />
      <path
         id="ID0.13395912060514092"
         d="m 34.134,32.319 c -0.154,-0.013 -0.114,0.562 -0.822,0.562 -0.708,0 -0.626,-0.51 -0.815,-0.493 -0.385,0.033 -0.2,1.414 0.871,1.38 1.082,-0.035 1.07,-1.428 0.766,-1.449 z"
         transform="matrix(0.63024944,0,0,0.63024944,0.3,0)"
         inkscape:connector-curvature="0"
         style="fill:#231f20" />
      <path
         id="ID0.555884491186589"
         d="m 33.552,25.065 c -0.154,-0.012 -0.113,0.562 -0.822,0.562 -0.708,0 -0.626,-0.511 -0.816,-0.493 -0.383,0.033 -0.199,1.414 0.872,1.38 1.083,-0.035 1.07,-1.428 0.766,-1.449 z"
         transform="matrix(0.63024944,0,0,0.63024944,0.3,0)"
         inkscape:connector-curvature="0"
         style="fill:#231f20" />
      <path
         id="ID0.9714229269884527"
         d="m 38.922,20.963 c -0.104,-0.008 -0.076,0.388 -0.565,0.388 -0.488,0 -0.434,-0.352 -0.563,-0.34 -0.265,0.023 -0.137,0.977 0.604,0.952 0.743,-0.025 0.736,-0.985 0.524,-1 z"
         transform="matrix(0.63024944,0,0,0.63024944,0.3,0)"
         inkscape:connector-curvature="0"
         style="fill:#231f20" />
      <path
         id="ID0.24664071295410395"
         d="m 27.071,27.789 c -0.154,-0.013 -0.114,0.562 -0.822,0.562 -0.708,0 -0.626,-0.51 -0.814,-0.492 -0.386,0.032 -0.2,1.414 0.872,1.379 1.082,-0.035 1.069,-1.425 0.764,-1.449 z"
         transform="matrix(0.63024944,0,0,0.63024944,0.3,0)"
         inkscape:connector-curvature="0"
         style="fill:#231f20" />
      <path
         id="ID0.6990464325062931"
         d="m 23.778,18.271 c -0.134,-0.01 -0.1,0.491 -0.719,0.491 -0.619,0 -0.547,-0.446 -0.714,-0.432 -0.336,0.028 -0.177,1.237 0.763,1.208 0.948,-0.03 0.936,-1.248 0.67,-1.267 z"
         transform="matrix(0.63024944,0,0,0.63024944,0.3,0)"
         inkscape:connector-curvature="0"
         style="fill:#231f20" />
    </g>
    <path
       id="Pit"
       d="m 22.339,8.366 v 0 C 19.803,8.61 19.52,5.647 22.058,5.403 c 2.538,-0.242 2.82,2.721 0.281,2.963"
       transform="matrix(0.63024944,0,0,0.63024944,0.3,0)"
       inkscape:connector-curvature="0"
       style="fill:#231f20" />
  </g>
</svg>

<svg version="1.1" width="33" height="31" xmlns="http://www.w3.org/2000/svg" xmlns:xlink="http://www.w3.org/1999/xlink">
  <!-- Exported by Scratch - http://scratch.mit.edu/ -->
  <g id="ID0.5813852562569082" transform="matrix(1.1547309160232544, 0, 0, 1.1547309160232544, 0.3, 0.4)">
    <path id="Orange" fill="#FAAC18" stroke="#000000" stroke-width="3" d="M 25.447 47.521 C 38.502 47.521 49.394 38.500 49.394 25.449 C 49.395 12.396 38.500 1.500 25.447 1.500 C 12.394 1.500 1.500 12.394 1.500 25.448 C 1.500 38.501 12.393 47.521 25.447 47.521 L 25.447 47.521 L 25.447 47.521 Z " transform="matrix(0.6302494406700134, 0, 0, 0.6302494406700134, 0.3, 0)"/>
    <g id="Bumps">
      <path id="ID0.804985926952213" fill="#231F20" d="M 14.172 38.442 C 14.020 38.430 14.060 39.004 13.352 39.004 C 12.644 39.004 12.726 38.494 12.536 38.511 C 12.152 38.544 12.336 39.924 13.408 39.891 C 14.488 39.858 14.477 38.466 14.172 38.442 L 14.172 38.442 Z " transform="matrix(0.6302494406700134, 0, 0, 0.6302494406700134, 0.3, 0)"/>
      <path id="ID0.9794910699129105" fill="#231F20" d="M 23.197 40.819 C 23.004 40.804 23.054 41.522 22.169 41.522 C 21.284 41.522 21.388 40.883 21.149 40.905 C 20.669 40.946 20.899 42.674 22.239 42.631 C 23.594 42.588 23.578 40.848 23.197 40.819 L 23.197 40.819 Z " transform="matrix(0.6302494406700134, 0, 0, 0.6302494406700134, 0.3, 0)"/>
      <path id="ID0.9470401261933148" fill="#231F20" d="M 32.572 38.262 C 32.380 38.248 32.430 38.965 31.545 38.965 C 30.660 38.965 30.765 38.325 30.525 38.348 C 30.045 38.390 30.275 40.117 31.615 40.074 C 32.969 40.028 32.954 38.289 32.572 38.262 L 32.572 38.262 Z " transform="matrix(0.6302494406700134, 0, 0, 0.6302494406700134, 0.3, 0)"/>
      <path id="ID0.7090954459272325" fill="#231F20" d="M 30.807 42.819 C 30.615 42.804 30.663 43.522 29.780 43.522 C 28.897 43.522 28.998 42.883 28.759 42.905 C 28.280 42.946 28.509 44.674 29.851 44.631 C 31.203 44.588 31.188 42.848 30.807 42.819 L 30.807 42.819 Z " transform="matrix(0.6302494406700134, 0, 0, 0.6302494406700134, 0.3, 0)"/>
      <path id="ID0.44101877231150866" fill="#231F20" d="M 26.270 32.905 C 26.116 32.893 26.156 33.467 25.448 33.467 C 24.740 33.467 24.822 32.957 24.632 32.974 C 24.248 33.007 24.434 34.388 25.504 34.356 C 26.587 34.319 26.574 32.928 26.270 32.905 L 26.270 32.905 Z " transform="matrix(0.6302494406700134, 0, 0, 0.6302494406700134, 0.3, 0)"/>
      <path id="ID0.06726754968985915" fill="#231F20" d="M 9.020 30.348 C 8.866 30.337 8.906 30.910 8.198 30.910 C 7.490 30.910 7.572 30.399 7.382 30.418 C 6.998 30.450 7.184 31.831 8.254 31.798 C 9.337 31.762 9.324 30.370 9.020 30.348 L 9.020 30.348 Z " transform="matrix(0.6302494406700134, 0, 0, 0.6302494406700134, 0.3, 0)"/>
      <path id="ID0.007415797095745802" fill="#231F20" d="M 18.585 34.187 C 18.433 34.174 18.473 34.749 17.765 34.749 C 17.057 34.749 17.139 34.238 16.949 34.256 C 16.565 34.289 16.749 35.670 17.821 35.636 C 18.902 35.600 18.890 34.207 18.585 34.187 L 18.585 34.187 Z " transform="matrix(0.6302494406700134, 0, 0, 0.6302494406700134, 0.3, 0)"/>
      <path id="ID0.8762991363182664" fill="#231F20" d="M 10.683 25.153 C 10.546 25.143 10.581 25.645 9.961 25.645 C 9.343 25.645 9.413 25.200 9.247 25.213 C 8.911 25.242 9.073 26.449 10.012 26.421 C 10.960 26.392 10.949 25.174 10.683 25.153 L 10.683 25.153 Z " transform="matrix(0.6302494406700134, 0, 0, 0.6302494406700134, 0.3, 0)"/>
      <path id="ID0.33623187709599733" fill="#231F20" d="M 20.351 25.065 C 20.197 25.053 20.237 25.627 19.529 25.627 C 18.821 25.627 18.903 25.116 18.713 25.134 C 18.329 25.167 18.516 26.548 19.585 26.514 C 20.668 26.479 20.655 25.086 20.351 25.065 L 20.351 25.065 Z " transform="matrix(0.6302494406700134, 0, 0, 0.6302494406700134, 0.3, 0)"/>
      <path id="ID0.7284569386392832" fill="#231F20" d="M 15.834 17.284 C 15.700 17.274 15.734 17.774 15.115 17.774 C 14.496 17.774 14.568 17.329 14.401 17.342 C 14.065 17.371 14.226 18.579 15.164 18.550 C 16.112 18.522 16.102 17.303 15.834 17.284 L 15.834 17.284 Z " transform="matrix(0.6302494406700134, 0, 0, 0.6302494406700134, 0.3, 0)"/>
      <path id="ID0.2832300402224064" fill="#231F20" d="M 40.087 30.348 C 39.935 30.337 39.975 30.910 39.267 30.910 C 38.559 30.910 38.641 30.399 38.452 30.417 C 38.068 30.450 38.252 31.832 39.323 31.798 C 40.404 31.762 40.392 30.370 40.087 30.348 L 40.087 30.348 Z " transform="matrix(0.6302494406700134, 0, 0, 0.6302494406700134, 0.3, 0)"/>
      <path id="ID0.23476475197821856" fill="#231F20" d="M 38.091 12.551 C 37.983 12.543 38.009 12.955 37.499 12.955 C 36.989 12.955 37.049 12.588 36.912 12.600 C 36.638 12.624 36.767 13.619 37.539 13.593 C 38.319 13.569 38.311 12.567 38.091 12.551 L 38.091 12.551 Z " transform="matrix(0.6302494406700134, 0, 0, 0.6302494406700134, 0.3, 0)"/>
      <path id="ID0.8315284247510135" fill="#231F20" d="M 45.490 27.764 C 45.331 27.753 45.372 28.346 44.639 28.346 C 43.906 28.346 43.992 27.820 43.793 27.836 C 43.397 27.868 43.586 29.299 44.694 29.264 C 45.819 29.229 45.807 27.787 45.490 27.764 L 45.490 27.764 Z " transform="matrix(0.6302494406700134, 0, 0, 0.6302494406700134, 0.3, 0)"/>
      <path id="ID0.44592879386618733" fill="#231F20" d="M 45.462 32.905 C 45.310 32.893 45.350 33.467 44.642 33.467 C 43.934 33.467 44.016 32.957 43.827 32.974 C 43.443 33.007 43.627 34.388 44.698 34.356 C 45.779 34.319 45.767 32.928 45.462 32.905 L 45.462 32.905 Z " transform="matrix(0.6302494406700134, 0, 0, 0.6302494406700134, 0.3, 0)"/>
      <path id="ID0.722075801808387" fill="#231F20" d="M 13.941 9.993 C 13.830 9.985 13.859 10.397 13.349 10.397 C 12.837 10.397 12.898 10.030 12.762 10.042 C 12.486 10.065 12.616 11.060 13.389 11.034 C 14.170 11.010 14.161 10.008 13.941 9.993 L 13.941 9.993 Z " transform="matrix(0.6302494406700134, 0, 0, 0.6302494406700134, 0.3, 0)"/>
      <path id="ID0.5132322055287659" fill="#231F20" d="M 45.207 22.241 C 45.103 22.233 45.129 22.630 44.642 22.630 C 44.154 22.630 44.208 22.278 44.079 22.290 C 43.814 22.313 43.942 23.266 44.683 23.241 C 45.425 23.218 45.418 22.257 45.207 22.241 L 45.207 22.241 Z " transform="matrix(0.6302494406700134, 0, 0, 0.6302494406700134, 0.3, 0)"/>
      <path id="ID0.5369726498611271" fill="#231F20" d="M 28.605 9.993 C 28.494 9.985 28.523 10.397 28.013 10.397 C 27.501 10.397 27.562 10.030 27.426 10.042 C 27.150 10.065 27.280 11.060 28.053 11.034 C 28.834 11.010 28.825 10.008 28.605 9.993 L 28.605 9.993 Z " transform="matrix(0.6302494406700134, 0, 0, 0.6302494406700134, 0.3, 0)"/>
      <path id="ID0.9760562963783741" fill="#231F20" d="M 30.476 4.864 C 30.365 4.856 30.394 5.267 29.882 5.267 C 29.372 5.267 29.433 4.901 29.295 4.913 C 29.021 4.936 29.150 5.931 29.922 5.905 C 30.704 5.881 30.695 4.880 30.476 4.864 L 30.476 4.864 Z " transform="matrix(0.6302494406700134, 0, 0, 0.6302494406700134, 0.3, 0)"/>
      <path id="ID0.6669098972342908" fill="#231F20" d="M 39.177 37.165 C 39.023 37.151 39.063 37.727 38.355 37.727 C 37.647 37.727 37.729 37.216 37.540 37.235 C 37.155 37.266 37.340 38.647 38.411 38.614 C 39.494 38.578 39.481 37.188 39.177 37.165 L 39.177 37.165 Z " transform="matrix(0.6302494406700134, 0, 0, 0.6302494406700134, 0.3, 0)"/>
      <path id="ID0.4851362085901201" fill="#231F20" d="M 6.198 18.563 C 6.064 18.553 6.098 19.054 5.479 19.054 C 4.860 19.054 4.932 18.608 4.765 18.622 C 4.429 18.650 4.590 19.859 5.528 19.830 C 6.477 19.801 6.465 18.583 6.198 18.563 L 6.198 18.563 Z " transform="matrix(0.6302494406700134, 0, 0, 0.6302494406700134, 0.3, 0)"/>
      <path id="ID0.8932326091453433" fill="#231F20" d="M 31.684 18.271 C 31.547 18.261 31.581 18.762 30.962 18.762 C 30.345 18.762 30.414 18.316 30.248 18.330 C 29.912 18.358 30.073 19.567 31.013 19.538 C 31.961 19.508 31.950 18.290 31.684 18.271 L 31.684 18.271 Z " transform="matrix(0.6302494406700134, 0, 0, 0.6302494406700134, 0.3, 0)"/>
      <path id="ID0.9554788623936474" fill="#231F20" d="M 42.677 14.677 C 42.571 14.669 42.599 15.066 42.110 15.066 C 41.622 15.066 41.678 14.713 41.548 14.725 C 41.282 14.748 41.409 15.701 42.152 15.677 C 42.896 15.653 42.887 14.692 42.677 14.677 L 42.677 14.677 Z " transform="matrix(0.6302494406700134, 0, 0, 0.6302494406700134, 0.3, 0)"/>
      <path id="ID0.13395912060514092" fill="#231F20" d="M 34.134 32.319 C 33.980 32.306 34.020 32.881 33.312 32.881 C 32.604 32.881 32.686 32.371 32.497 32.388 C 32.112 32.421 32.297 33.802 33.368 33.768 C 34.450 33.733 34.438 32.340 34.134 32.319 L 34.134 32.319 Z " transform="matrix(0.6302494406700134, 0, 0, 0.6302494406700134, 0.3, 0)"/>
      <path id="ID0.555884491186589" fill="#231F20" d="M 33.552 25.065 C 33.398 25.053 33.439 25.627 32.730 25.627 C 32.022 25.627 32.104 25.116 31.914 25.134 C 31.531 25.167 31.715 26.548 32.786 26.514 C 33.869 26.479 33.856 25.086 33.552 25.065 L 33.552 25.065 Z " transform="matrix(0.6302494406700134, 0, 0, 0.6302494406700134, 0.3, 0)"/>
      <path id="ID0.9714229269884527" fill="#231F20" d="M 38.922 20.963 C 38.818 20.955 38.846 21.351 38.357 21.351 C 37.869 21.351 37.923 20.999 37.794 21.011 C 37.529 21.034 37.657 21.988 38.398 21.963 C 39.141 21.938 39.134 20.978 38.922 20.963 L 38.922 20.963 Z " transform="matrix(0.6302494406700134, 0, 0, 0.6302494406700134, 0.3, 0)"/>
      <path id="ID0.24664071295410395" fill="#231F20" d="M 27.071 27.789 C 26.917 27.776 26.957 28.351 26.249 28.351 C 25.541 28.351 25.623 27.841 25.435 27.859 C 25.049 27.891 25.235 29.273 26.307 29.238 C 27.389 29.203 27.376 27.813 27.071 27.789 L 27.071 27.789 Z " transform="matrix(0.6302494406700134, 0, 0, 0.6302494406700134, 0.3, 0)"/>
      <path id="ID0.6990464325062931" fill="#231F20" d="M 23.778 18.271 C 23.644 18.261 23.678 18.762 23.059 18.762 C 22.440 18.762 22.512 18.316 22.345 18.330 C 22.009 18.358 22.168 19.567 23.108 19.538 C 24.056 19.508 24.044 18.290 23.778 18.271 L 23.778 18.271 Z " transform="matrix(0.6302494406700134, 0, 0, 0.6302494406700134, 0.3, 0)"/>
    </g>
    <path id="Pit" fill="#231F20" d="M 22.339 8.366 L 22.339 8.366 C 19.803 8.610 19.520 5.647 22.058 5.403 C 24.596 5.161 24.878 8.124 22.339 8.366 " transform="matrix(0.6302494406700134, 0, 0, 0.6302494406700134, 0.3, 0)"/>
  </g>
</svg>
